src/img/benefits-6.svg

<svg width="49" height="48" viewBox="0 0 49 48" fill="none" xmlns="http://www.w3.org/2000/svg">
<g clip-path="url(#clip0_1_404)">
<path d="M37.7218 12.7466V1H12.275V12.7466M10.319 38.418L1.99841 38.4253V18.6117C1.99841 15.3726 4.62755 12.7467 7.87075 12.7467H42.1261C45.3693 12.7467 47.9984 15.3726 47.9984 18.6117V38.4253L39.6807 38.418M10.319 29.8361H39.6807V47H10.319V29.8361Z" stroke="#B01736" stroke-width="2"/>
</g>
<defs>
<clipPath id="clip0_1_404">
<rect width="48" height="48" fill="white" transform="translate(0.998413)"/>
</clipPath>
</defs>
</svg>

<svg xmlns="http://www.w3.org/2000/svg" id="benefits-6" width="49" height="48" fill="none"><g clip-path="url(#a)"><path stroke="#B01736" stroke-width="2" d="M37.722 12.747V1H12.275v11.747m-1.956 25.671-8.32.007V18.612c0-3.24 2.629-5.865 5.872-5.865h34.255a5.869 5.869 0 0 1 5.872 5.865v19.813l-8.317-.007m-29.362-8.582h29.362V47H10.319V29.836Z"/></g><defs><clipPath id="a"><path fill="#fff" d="M.998 0h48v48h-48z"/></clipPath></defs></svg>
